storage/app/icons/phosphoricons/duotone/align-right-duotone.svg

<svg xmlns="http://www.w3.org/2000/svg" fill="currentColor" viewBox="0 0 256 256"><path d="M184 64v40a8 8 0 0 1-8 8H80a8 8 0 0 1-8-8V64a8 8 0 0 1 8-8h96a8 8 0 0 1 8 8m-8 80H40a8 8 0 0 0-8 8v40a8 8 0 0 0 8 8h136a8 8 0 0 0 8-8v-40a8 8 0 0 0-8-8" opacity=".2"/><path d="M224 40v176a8 8 0 0 1-16 0V40a8 8 0 0 1 16 0m-32 24v40a16 16 0 0 1-16 16H80a16 16 0 0 1-16-16V64a16 16 0 0 1 16-16h96a16 16 0 0 1 16 16m-16 0H80v40h96Zm16 88v40a16 16 0 0 1-16 16H40a16 16 0 0 1-16-16v-40a16 16 0 0 1 16-16h136a16 16 0 0 1 16 16m-16 0H40v40h136Z"/></svg>

<svg xmlns="http://www.w3.org/2000/svg" viewBox="0 0 256 256" fill="currentColor"><path d="M184,64v40a8,8,0,0,1-8,8H80a8,8,0,0,1-8-8V64a8,8,0,0,1,8-8h96A8,8,0,0,1,184,64Zm-8,80H40a8,8,0,0,0-8,8v40a8,8,0,0,0,8,8H176a8,8,0,0,0,8-8V152A8,8,0,0,0,176,144Z" opacity="0.2"/><path d="M224,40V216a8,8,0,0,1-16,0V40a8,8,0,0,1,16,0ZM192,64v40a16,16,0,0,1-16,16H80a16,16,0,0,1-16-16V64A16,16,0,0,1,80,48h96A16,16,0,0,1,192,64Zm-16,0H80v40h96Zm16,88v40a16,16,0,0,1-16,16H40a16,16,0,0,1-16-16V152a16,16,0,0,1,16-16H176A16,16,0,0,1,192,152Zm-16,0H40v40H176Z"/></svg>
